src/assets/icons/cars/car_gears.svg

<svg width="48" height="48" viewBox="0 0 48 48" fill="none" xmlns="http://www.w3.org/2000/svg">
<g id="Icons / Vertical Cars / Car gearbox manual">
<g id="Vector">
<path fill-rule="evenodd" clip-rule="evenodd" d="M17 28C17.552 28 18 27.552 18 27V25H23V27C23 27.552 23.448 28 24 28C24.552 28 25 27.552 25 27V25H29C30.654 25 32 23.654 32 22V21C32 20.448 31.552 20 31 20C30.448 20 30 20.448 30 21V22C30 22.551 29.551 23 29 23H25V21C25 20.448 24.552 20 24 20C23.448 20 23 20.448 23 21V23H18V21C18 20.448 17.552 20 17 20C16.448 20 16 20.448 16 21V27C16 27.552 16.448 28 17 28Z" fill="#253238"/>
<path fill-rule="evenodd" clip-rule="evenodd" d="M24 10C31.72 10 38 16.28 38 24C38 31.72 31.72 38 24 38C16.28 38 10 31.72 10 24C10 16.28 16.28 10 24 10ZM24 40C32.837 40 40 32.837 40 24C40 15.163 32.837 8 24 8C15.163 8 8 15.163 8 24C8 32.837 15.163 40 24 40Z" fill="#253238"/>
<path fill-rule="evenodd" clip-rule="evenodd" d="M24 18C24.552 18 25 17.552 25 17V16C25 15.448 24.552 15 24 15C23.448 15 23 15.448 23 16V17C23 17.552 23.448 18 24 18Z" fill="#253238"/>
<path fill-rule="evenodd" clip-rule="evenodd" d="M24 30C23.448 30 23 30.448 23 31V32C23 32.552 23.448 33 24 33C24.552 33 25 32.552 25 32V31C25 30.448 24.552 30 24 30Z" fill="#253238"/>
<path fill-rule="evenodd" clip-rule="evenodd" d="M17 18C17.552 18 18 17.552 18 17V16C18 15.448 17.552 15 17 15C16.448 15 16 15.448 16 16V17C16 17.552 16.448 18 17 18Z" fill="#253238"/>
<path fill-rule="evenodd" clip-rule="evenodd" d="M31 18C31.552 18 32 17.552 32 17V16C32 15.448 31.552 15 31 15C30.448 15 30 15.448 30 16V17C30 17.552 30.448 18 31 18Z" fill="#253238"/>
<path fill-rule="evenodd" clip-rule="evenodd" d="M17 30C16.448 30 16 30.448 16 31V32C16 32.552 16.448 33 17 33C17.552 33 18 32.552 18 32V31C18 30.448 17.552 30 17 30Z" fill="#253238"/>
</g>
</g>
</svg>

<svg width="48" height="48" viewBox="0 0 48 48" fill="none" xmlns="http://www.w3.org/2000/svg"><g fill-rule="evenodd" clip-rule="evenodd" fill="#253238"><path d="M17 28a1 1 0 001-1v-2h5v2a1 1 0 002 0v-2h4c1.654 0 3-1.346 3-3v-1a1 1 0 00-2 0v1c0 .551-.449 1-1 1h-4v-2a1 1 0 00-2 0v2h-5v-2a1 1 0 00-2 0v6a1 1 0 001 1z"/><path d="M24 10c7.72 0 14 6.28 14 14s-6.28 14-14 14-14-6.28-14-14 6.28-14 14-14zm0 30c8.837 0 16-7.163 16-16S32.837 8 24 8 8 15.163 8 24s7.163 16 16 16z"/><path d="M24 18a1 1 0 001-1v-1a1 1 0 00-2 0v1a1 1 0 001 1zM24 30a1 1 0 00-1 1v1a1 1 0 002 0v-1a1 1 0 00-1-1zM17 18a1 1 0 001-1v-1a1 1 0 00-2 0v1a1 1 0 001 1zM31 18a1 1 0 001-1v-1a1 1 0 00-2 0v1a1 1 0 001 1zM17 30a1 1 0 00-1 1v1a1 1 0 002 0v-1a1 1 0 00-1-1z"/></g></svg>
